icons/steam.svg

<svg width="24" height="24" viewBox="0 0 24 24" fill="none" xmlns="http://www.w3.org/2000/svg">
<path d="M17 4C19.761 4 22 6.239 22 9C22 11.761 19.761 14 17 14C16.696 14 16.397 13.973 16.108 13.92L13.457 15.909C13.485 16.102 13.5 16.299 13.5 16.5C13.5 18.71 11.71 20.5 9.50001 20.5C7.29001 20.5 5.50001 18.71 5.50001 16.5C5.50001 16.323 5.51201 16.148 5.53401 15.976L2.63562 14.8048C2.12337 14.5978 1.87601 14.0147 2.0832 13.5025C2.29024 12.9907 2.87285 12.7435 3.38478 12.9502L6.28401 14.121C7.01301 13.138 8.18201 12.5 9.50001 12.5C9.66301 12.5 9.82301 12.51 9.98001 12.529L12.022 9.468C12.007 9.314 12 9.158 12 9C12 6.239 14.239 4 17 4ZM9.50001 14.5C9.03601 14.5 8.60801 14.658 8.26901 14.924L9.87501 15.573C10.387 15.78 10.635 16.363 10.427 16.875C10.22 17.387 9.63701 17.635 9.12501 17.427L7.52001 16.78C7.65601 17.752 8.49101 18.501 9.50101 18.501C10.606 18.501 11.501 17.606 11.501 16.501C11.501 15.396 10.606 14.501 9.50101 14.501L9.50001 14.5ZM12.864 11.81L11.881 13.286C12.165 13.496 12.421 13.744 12.639 14.021L13.999 13.001C13.559 12.669 13.174 12.266 12.864 11.81ZM17 6C15.343 6 14 7.343 14 9C14 10.657 15.343 12 17 12C18.657 12 20 10.657 20 9C20 7.343 18.657 6 17 6ZM17 7C18.105 7 19 7.895 19 9C19 10.105 18.105 11 17 11C15.895 11 15 10.105 15 9C15 7.895 15.895 7 17 7Z" fill="black"/>
</svg>

<svg
  width="24"
  height="24"
  viewBox="0 0 24 24"
  xmlns="http://www.w3.org/2000/svg"
>
  <path d="M17 4a5 5 0 1 1-.892 9.92l-2.651 1.989A3.999 3.999 0 0 1 9.5 20.5a3.999 3.999 0 0 1-3.966-4.524l-2.898-1.171a1 1 0 0 1 .749-1.855l2.899 1.171a3.996 3.996 0 0 1 3.696-1.592l2.042-3.061A5 5 0 0 1 17 4zM9.5 14.5c-.464 0-.892.158-1.231.424l1.606.649a1 1 0 1 1-.75 1.854L7.52 16.78a2.001 2.001 0 0 0 3.981-.279 2 2 0 0 0-2-2L9.5 14.5zm3.364-2.69l-.983 1.476c.284.21.54.458.758.735l1.36-1.02a5.056 5.056 0 0 1-1.135-1.191zM17 6a3 3 0 1 0 0 6 3 3 0 0 0 0-6zm0 1a2 2 0 1 1 .001 3.999A2 2 0 0 1 17 7z" />
</svg>
